img/facebook-icon.svg

<svg width="35" height="35" viewBox="0 0 35 35" fill="none" xmlns="http://www.w3.org/2000/svg">
<path opacity="0.5" d="M17.5 0C7.83523 0 0 7.81362 0 17.4517C0 26.2014 6.46307 33.4256 14.8845 34.6877V22.0772H10.5549V17.4898H14.8845V14.4373C14.8845 9.38348 17.3536 7.16473 21.5656 7.16473C23.5828 7.16473 24.6495 7.31386 25.1547 7.38208V11.3865H22.2815C20.4933 11.3865 19.8689 13.0769 19.8689 14.9823V17.4898H25.1093L24.3982 22.0772H19.8689V34.725C28.4105 33.5692 35 26.2863 35 17.4517C35 7.81362 27.1648 0 17.5 0Z" fill="white"/>
</svg>

<svg width="35" height="35" fill="none" xmlns="http://www.w3.org/2000/svg"><path opacity=".5" d="M17.5 0C7.835 0 0 7.814 0 17.452c0 8.75 6.463 15.974 14.884 17.236v-12.61h-4.33V17.49h4.33v-3.053c0-5.054 2.47-7.272 6.682-7.272 2.017 0 3.084.149 3.589.217v4.005h-2.873c-1.789 0-2.413 1.69-2.413 3.595v2.508h5.24l-.71 4.587h-4.53v12.648C28.41 33.569 35 26.286 35 17.452 35 7.814 27.165 0 17.5 0z" fill="#fff"/></svg>
